img/svg/direction.svg

<?xml version="1.0" encoding="utf-8"?><!DOCTYPE svg PUBLIC "-//W3C//DTD SVG 1.1//EN" "http://www.w3.org/Graphics/SVG/1.1/DTD/svg11.dtd"><svg version="1.1" baseProfile="full" xmlns="http://www.w3.org/2000/svg" xmlns:xlink="http://www.w3.org/1999/xlink" xmlns:ev="http://www.w3.org/2001/xml-events"   height="30px"   width="33px" ><path fill="rgb( 48, 171, 223 )" d="M14.025,0 C14.025,0 12.54,0 12.54,0 C12.177,0 11.88,0.29999999999995 11.88,0.66700000000003 C11.88,0.66700000000003 11.88,7 11.88,7 C11.88,7 6.04600000000005,7 6.04600000000005,7 C5.77300000000002,7 5.43499999999995,7.06299999999999 5.11000000000001,7.16399999999999 C4.78499999999997,7.26499999999999 4.47199999999998,7.40499999999997 4.25099999999998,7.55799999999999 C4.25099999999998,7.55799999999999 0.33199999999999,10.275 0.33199999999999,10.275 C0.11099999999999,10.429 0,10.631 0,10.833 C0,11.0359999999999 0.11099999999999,11.237 0.33199999999999,11.391 C0.33199999999999,11.391 4.25099999999998,14.109 4.25099999999998,14.109 C4.47199999999998,14.2619999999999 4.78499999999997,14.401 5.11000000000001,14.503 C5.43499999999995,14.604 5.77300000000002,14.667 6.04600000000005,14.667 C6.04600000000005,14.667 11.88,14.667 11.88,14.667 C11.88,14.667 11.88,29.3339999999999 11.88,29.3339999999999 C11.88,29.7 12.177,30 12.54,30 C12.54,30 14.025,30 14.025,30 C14.388,30 14.6849999999999,29.7 14.6849999999999,29.3339999999999 C14.6849999999999,29.3339999999999 14.6849999999999,0.66700000000003 14.6849999999999,0.66700000000003 C14.6849999999999,0.29999999999995 14.388,0 14.025,0 ZM32.668,6.94299999999998 C32.668,6.94299999999998 28.749,4.22500000000002 28.749,4.22500000000002 C28.528,4.07100000000003 28.215,3.93200000000002 27.89,3.83000000000004 C27.564,3.73000000000002 27.226,3.66700000000003 26.954,3.66700000000003 C26.954,3.66700000000003 15.675,3.66700000000003 15.675,3.66700000000003 C15.675,3.66700000000003 16.996,11.333 16.996,11.333 C16.996,11.333 26.954,11.333 26.954,11.333 C27.226,11.333 27.5650000000001,11.271 27.89,11.169 C28.215,11.068 28.528,10.929 28.749,10.775 C28.749,10.775 32.668,8.05799999999999 32.668,8.05799999999999 C32.889,7.90499999999997 33,7.70299999999997 33,7.5 C33,7.298 32.889,7.096 32.668,6.94299999999998 Z "/></svg>

<svg baseProfile="full" xmlns="http://www.w3.org/2000/svg" height="30" width="33"><path fill="rgb( 48, 171, 223 )" d="M14.025 0h-1.485c-.363 0-.66.3-.66.667v6.333h-5.834c-.273 0-.611.063-.936.164-.325.101-.638.241-.859.394l-3.919 2.717c-.221.154-.332.356-.332.558 0 .203.111.404.332.558l3.919 2.718c.221.153.534.292.859.394.325.101.663.164.936.164h5.834v14.667c0 .366.297.666.66.666h1.485c.363 0 .66-.3.66-.666v-28.667c0-.367-.297-.667-.66-.667zm18.643 6.943l-3.919-2.718c-.221-.154-.534-.293-.859-.395-.326-.1-.664-.163-.936-.163h-11.279l1.321 7.666h9.958c.272 0 .611-.062.936-.164.325-.101.638-.24.859-.394l3.919-2.717c.221-.153.332-.355.332-.558 0-.202-.111-.404-.332-.557z"/></svg>
